luts/flog_to_linear.cube
TITLE "F-Log to Scene Linear"
DOMAIN_MIN 0 0 0
DOMAIN_MAX 1 1 1
LUT_1D_SIZE 4096
-0.010630485651236872 -0.010630485651236872 -0.010630485651236872
-0.010602531145809588 -0.010602531145809588 -0.010602531145809588
-0.010574576640382305 -0.010574576640382305 -0.010574576640382305
-0.010546622134955021 -0.010546622134955021 -0.010546622134955021
-0.01051866762952774 -0.01051866762952774 -0.01051866762952774
-0.010490713124100456 -0.010490713124100456 -0.010490713124100456
-0.010462758618673173 -0.010462758618673173 -0.010462758618673173
-0.010434804113245889 -0.010434804113245889 -0.010434804113245889
-0.010406849607818605 -0.010406849607818605 -0.010406849607818605
-0.010378895102391322 -0.010378895102391322 -0.010378895102391322
-0.010350940596964038 -0.010350940596964038 -0.010350940596964038
-0.010322986091536755 -0.010322986091536755 -0.010322986091536755
-0.010295031586109471 -0.010295031586109471 -0.010295031586109471
-0.010267077080682188 -0.010267077080682188 -0.010267077080682188
-0.010239122575254906 -0.010239122575254906 -0.010239122575254906
-0.010211168069827622 -0.010211168069827622 -0.010211168069827622
-0.010183213564400339 -0.010183213564400339 -0.010183213564400339
-0.010155259058973055 -0.010155259058973055 -0.010155259058973055
-0.010127304553545772 -0.010127304553545772 -0.010127304553545772
-0.01009935004811849 -0.01009935004811849 -0.01009935004811849
-0.010071395542691207 -0.010071395542691207 -0.010071395542691207
-0.010043441037263923 -0.010043441037263923 -0.010043441037263923
-0.01001548653183664 -0.01001548653183664 -0.01001548653183664
-0.009987532026409356 -0.009987532026409356 -0.009987532026409356
-0.009959577520982072 -0.009959577520982072 -0.009959577520982072
-0.009931623015554789 -0.009931623015554789 -0.009931623015554789
-0.009903668510127505 -0.009903668510127505 -0.009903668510127505
-0.009875714004700222 -0.009875714004700222 -0.009875714004700222
-0.009847759499272938 -0.009847759499272938 -0.009847759499272938
-0.009819804993845656 -0.009819804993845656 -0.009819804993845656
-0.009791850488418373 -0.009791850488418373 -0.009791850488418373
-0.00976389598299109 -0.00976389598299109 -0.00976389598299109
-0.009735941477563806 -0.009735941477563806 -0.009735941477563806
-0.009707986972136522 -0.009707986972136522 -0.009707986972136522
-0.00968003246670924 -0.00968003246670924 -0.00968003246670924
-0.009652077961281957 -0.009652077961281957 -0.009652077961281957
-0.009624123455854674 -0.009624123455854674 -0.009624123455854674
-0.00959616895042739 -0.00959616895042739 -0.00959616895042739
-0.009568214445000106 -0.009568214445000106 -0.009568214445000106
-0.009540259939572825 -0.009540259939572825 -0.009540259939572825
-0.009512305434145541 -0.009512305434145541 -0.009512305434145541
-0.009484350928718258 -0.009484350928718258 -0.009484350928718258
-0.009456396423290972 -0.009456396423290972 -0.009456396423290972
-0.009428441917863689 -0.009428441917863689 -0.009428441917863689
-0.009400487412436407 -0.009400487412436407 -0.009400487412436407
-0.009372532907009123 -0.009372532907009123 -0.009372532907009123
-0.00934457840158184 -0.00934457840158184 -0.00934457840158184
-0.009316623896154556 -0.009316623896154556 -0.009316623896154556
-0.009288669390727273 -0.009288669390727273 -0.009288669390727273
-0.009260714885299991 -0.009260714885299991 -0.009260714885299991
-0.009232760379872708 -0.009232760379872708 -0.009232760379872708
-0.009204805874445424 -0.009204805874445424 -0.009204805874445424
-0.00917685136901814 -0.00917685136901814 -0.00917685136901814
-0.009148896863590857 -0.009148896863590857 -0.009148896863590857
-0.009120942358163575 -0.009120942358163575 -0.009120942358163575
-0.00909298785273629 -0.00909298785273629 -0.00909298785273629
-0.009065033347309006 -0.009065033347309006 -0.009065033347309006
-0.009037078841881723 -0.009037078841881723 -0.009037078841881723
-0.00900912433645444 -0.00900912433645444 -0.00900912433645444
-0.008981169831027157 -0.008981169831027157 -0.008981169831027157
-0.008953215325599874 -0.008953215325599874 -0.008953215325599874
-0.00892526082017259 -0.00892526082017259 -0.00892526082017259
-0.008897306314745307 -0.008897306314745307 -0.008897306314745307
-0.008869351809318023 -0.008869351809318023 -0.008869351809318023
-0.008841397303890742 -0.008841397303890742 -0.008841397303890742
-0.008813442798463458 -0.008813442798463458 -0.008813442798463458
-0.008785488293036174 -0.008785488293036174 -0.008785488293036174
-0.008757533787608891 -0.008757533787608891 -0.008757533787608891
-0.008729579282181607 -0.008729579282181607 -0.008729579282181607
-0.008701624776754326 -0.008701624776754326 -0.008701624776754326
-0.008673670271327042 -0.008673670271327042 -0.008673670271327042
-0.008645715765899759 -0.008645715765899759 -0.008645715765899759
-0.008617761260472475 -0.008617761260472475 -0.008617761260472475
-0.008589806755045191 -0.008589806755045191 -0.008589806755045191
-0.00856185224961791 -0.00856185224961791 -0.00856185224961791
-0.008533897744190624 -0.008533897744190624 -0.008533897744190624
-0.008505943238763341 -0.008505943238763341 -0.008505943238763341
-0.008477988733336057 -0.008477988733336057 -0.008477988733336057
-0.008450034227908774 -0.008450034227908774 -0.008450034227908774
-0.008422079722481492 -0.008422079722481492 -0.008422079722481492
-0.008394125217054208 -0.008394125217054208 -0.008394125217054208
-0.008366170711626925 -0.008366170711626925 -0.008366170711626925
-0.008338216206199641 -0.008338216206199641 -0.008338216206199641
-0.008310261700772358 -0.008310261700772358 -0.008310261700772358
-0.008282307195345076 -0.008282307195345076 -0.008282307195345076
-0.008254352689917793 -0.008254352689917793 -0.008254352689917793
-0.008226398184490507 -0.008226398184490507 -0.008226398184490507
-0.008198443679063224 -0.008198443679063224 -0.008198443679063224
-0.00817048917363594 -0.00817048917363594 -0.00817048917363594
-0.008142534668208658 -0.008142534668208658 -0.008142534668208658
-0.008114580162781375 -0.008114580162781375 -0.008114580162781375
-0.008086625657354091 -0.008086625657354091 -0.008086625657354091
-0.008058671151926808 -0.008058671151926808 -0.008058671151926808
-0.008030716646499524 -0.008030716646499524 -0.008030716646499524
-0.008002762141072242 -0.008002762141072242 -0.008002762141072242
-0.007974807635644959 -0.007974807635644959 -0.007974807635644959
-0.007946853130217675 -0.007946853130217675 -0.007946853130217675
-0.007918898624790392 -0.007918898624790392 -0.007918898624790392
-0.007890944119363108 -0.007890944119363108 -0.007890944119363108
-0.007862989613935827 -0.007862989613935827 -0.007862989613935827
-0.007835035108508543 -0.007835035108508543 -0.007835035108508543
-0.0078070806030812595 -0.0078070806030812595 -0.0078070806030812595
-0.007779126097653976 -0.007779126097653976 -0.007779126097653976
-0.007751171592226693 -0.007751171592226693 -0.007751171592226693
-0.00772321708679941 -0.00772321708679941 -0.00772321708679941
-0.007695262581372126 -0.007695262581372126 -0.007695262581372126
-0.007667308075944844 -0.007667308075944844 -0.007667308075944844
-0.007639353570517558 -0.007639353570517558 -0.007639353570517558
-0.007611399065090276 -0.007611399065090276 -0.007611399065090276
-0.007583444559662992 -0.007583444559662992 -0.007583444559662992
-0.007555490054235709 -0.007555490054235709 -0.007555490054235709
-0.007527535548808426 -0.007527535548808426 -0.007527535548808426
-0.007499581043381142 -0.007499581043381142 -0.007499581043381142
-0.00747162653795386 -0.00747162653795386 -0.00747162653795386
-0.007443672032526576 -0.007443672032526576 -0.007443672032526576
-0.007415717527099293 -0.007415717527099293 -0.007415717527099293
-0.00738776302167201 -0.00738776302167201 -0.00738776302167201
-0.0073598085162447265 -0.0073598085162447265 -0.0073598085162447265
-0.007331854010817442 -0.007331854010817442 -0.007331854010817442
-0.0073038995053901585 -0.0073038995053901585 -0.0073038995053901585
-0.007275944999962875 -0.007275944999962875 -0.007275944999962875
-0.007247990494535592 -0.007247990494535592 -0.007247990494535592
-0.007220035989108309 -0.007220035989108309 -0.007220035989108309
-0.007192081483681026 -0.007192081483681026 -0.007192081483681026
-0.007164126978253743 -0.007164126978253743 -0.007164126978253743
-0.007136172472826459 -0.007136172472826459 -0.007136172472826459
-0.007108217967399176 -0.007108217967399176 -0.007108217967399176
-0.007080263461971893 -0.007080263461971893 -0.007080263461971893
-0.00705230895654461 -0.00705230895654461 -0.00705230895654461
-0.007024354451117327 -0.007024354451117327 -0.007024354451117327
-0.006996399945690043 -0.006996399945690043 -0.006996399945690043
-0.0069684454402627605 -0.0069684454402627605 -0.0069684454402627605
-0.006940490934835477 -0.006940490934835477 -0.006940490934835477
-0.006912536429408193 -0.006912536429408193 -0.006912536429408193
-0.00688458192398091 -0.00688458192398091 -0.00688458192398091
-0.006856627418553626 -0.006856627418553626 -0.006856627418553626
-0.006828672913126344 -0.006828672913126344 -0.006828672913126344
-0.00680071840769906 -0.00680071840769906 -0.00680071840769906
-0.0067727639022717775 -0.0067727639022717775 -0.0067727639022717775
-0.006744809396844494 -0.006744809396844494 -0.006744809396844494
-0.0067168548914172095 -0.0067168548914172095 -0.0067168548914172095
-0.006688900385989927 -0.006688900385989927 -0.006688900385989927
-0.006660945880562643 -0.006660945880562643 -0.006660945880562643
-0.006632991375135361 -0.006632991375135361 -0.006632991375135361
-0.006605036869708077 -0.006605036869708077 -0.006605036869708077
-0.006577082364280794 -0.006577082364280794 -0.006577082364280794
-0.006549127858853511 -0.006549127858853511 -0.006549127858853511
-0.006521173353426227 -0.006521173353426227 -0.006521173353426227
-0.006493218847998944 -0.006493218847998944 -0.006493218847998944
-0.00646526434257166 -0.00646526434257166 -0.00646526434257166
-0.006437309837144377 -0.006437309837144377 -0.006437309837144377
-0.006409355331717094 -0.006409355331717094 -0.006409355331717094
-0.006381400826289811 -0.006381400826289811 -0.006381400826289811
-0.006353446320862528 -0.006353446320862528 -0.006353446320862528
-0.006325491815435244 -0.006325491815435244 -0.006325491815435244
-0.006297537310007961 -0.006297537310007961 -0.006297537310007961
-0.006269582804580677 -0.006269582804580677 -0.006269582804580677
-0.006241628299153394 -0.006241628299153394 -0.006241628299153394
-0.006213673793726111 -0.006213673793726111 -0.006213673793726111
-0.006185719288298828 -0.006185719288298828 -0.006185719288298828
-0.006157764782871544 -0.006157764782871544 -0.006157764782871544
-0.0061298102774442614 -0.0061298102774442614 -0.0061298102774442614
-0.006101855772016978 -0.006101855772016978 -0.006101855772016978
-0.006073901266589694 -0.006073901266589694 -0.006073901266589694
-0.006045946761162412 -0.006045946761162412 -0.006045946761162412
-0.006017992255735127 -0.006017992255735127 -0.006017992255735127
-0.005990037750307845 -0.005990037750307845 -0.005990037750307845
-0.005962083244880561 -0.005962083244880561 -0.005962083244880561
-0.005934128739453278 -0.005934128739453278 -0.005934128739453278
-0.005906174234025995 -0.005906174234025995 -0.005906174234025995
-0.005878219728598711 -0.005878219728598711 -0.005878219728598711
-0.005850265223171429 -0.005850265223171429 -0.005850265223171429
-0.005822310717744144 -0.005822310717744144 -0.005822310717744144
-0.005794356212316861 -0.005794356212316861 -0.005794356212316861
-0.005766401706889578 -0.005766401706889578 -0.005766401706889578
-0.005738447201462295 -0.005738447201462295 -0.005738447201462295
-0.005710492696035012 -0.005710492696035012 -0.005710492696035012
-0.005682538190607728 -0.005682538190607728 -0.005682538190607728
-0.005654583685180445 -0.005654583685180445 -0.005654583685180445
-0.005626629179753162 -0.005626629179753162 -0.005626629179753162
-0.005598674674325879 -0.005598674674325879 -0.005598674674325879
-0.005570720168898595 -0.005570720168898595 -0.005570720168898595
-0.005542765663471312 -0.005542765663471312 -0.005542765663471312
-0.005514811158044028 -0.005514811158044028 -0.005514811158044028
-0.005486856652616745 -0.005486856652616745 -0.005486856652616745
-0.005458902147189462 -0.005458902147189462 -0.005458902147189462
-0.005430947641762179 -0.005430947641762179 -0.005430947641762179
-0.005402993136334896 -0.005402993136334896 -0.005402993136334896
-0.005375038630907611 -0.005375038630907611 -0.005375038630907611
-0.005347084125480329 -0.005347084125480329 -0.005347084125480329
-0.005319129620053045 -0.005319129620053045 -0.005319129620053045
-0.005291175114625762 -0.005291175114625762 -0.005291175114625762
-0.005263220609198479 -0.005263220609198479 -0.005263220609198479
-0.005235266103771195 -0.005235266103771195 -0.005235266103771195
-0.005207311598343913 -0.005207311598343913 -0.005207311598343913
-0.005179357092916629 -0.005179357092916629 -0.005179357092916629
-0.0051514025874893465 -0.0051514025874893465 -0.0051514025874893465
-0.005123448082062062 -0.005123448082062062 -0.005123448082062062
-0.0050954935766347785 -0.0050954935766347785 -0.0050954935766347785
-0.005067539071207496 -0.005067539071207496 -0.005067539071207496
-0.005039584565780212 -0.005039584565780212 -0.005039584565780212
-0.00501163006035293 -0.00501163006035293 -0.00501163006035293
-0.004983675554925646 -0.004983675554925646 -0.004983675554925646
-0.004955721049498363 -0.004955721049498363 -0.004955721049498363
-0.004927766544071079 -0.004927766544071079 -0.004927766544071079
-0.0048998120386437955 -0.0048998120386437955 -0.0048998120386437955
-0.004871857533216513 -0.004871857533216513 -0.004871857533216513
-0.004843903027789229 -0.004843903027789229 -0.004843903027789229
-0.004815948522361946 -0.004815948522361946 -0.004815948522361946
-0.004787994016934663 -0.004787994016934663 -0.004787994016934663
-0.00476003951150738 -0.00476003951150738 -0.00476003951150738
-0.004732085006080097 -0.004732085006080097 -0.004732085006080097
-0.004704130500652813 -0.004704130500652813 -0.004704130500652813
-0.004676175995225529 -0.004676175995225529 -0.004676175995225529
-0.004648221489798246 -0.004648221489798246 -0.004648221489798246
-0.004620266984370963 -0.004620266984370963 -0.004620266984370963
-0.00459231247894368 -0.00459231247894368 -0.00459231247894368
-0.004564357973516397 -0.004564357973516397 -0.004564357973516397
-0.004536403468089113 -0.004536403468089113 -0.004536403468089113
-0.00450844896266183 -0.00450844896266183 -0.00450844896266183
-0.004480494457234546 -0.004480494457234546 -0.004480494457234546
-0.004452539951807263 -0.004452539951807263 -0.004452539951807263
-0.00442458544637998 -0.00442458544637998 -0.00442458544637998
-0.004396630940952696 -0.004396630940952696 -0.004396630940952696
-0.004368676435525414 -0.004368676435525414 -0.004368676435525414
-0.00434072193009813 -0.00434072193009813 -0.00434072193009813
-0.0043127674246708474 -0.0043127674246708474 -0.0043127674246708474
-0.004284812919243564 -0.004284812919243564 -0.004284812919243564
-0.00425685841381628 -0.00425685841381628 -0.00425685841381628
-0.004228903908388997 -0.004228903908388997 -0.004228903908388997
-0.004200949402961713 -0.004200949402961713 -0.004200949402961713
-0.004172994897534431 -0.004172994897534431 -0.004172994897534431
-0.004145040392107147 -0.004145040392107147 -0.004145040392107147
-0.004117085886679864 -0.004117085886679864 -0.004117085886679864
-0.004089131381252581 -0.004089131381252581 -0.004089131381252581
-0.004061176875825297 -0.004061176875825297 -0.004061176875825297
-0.004033222370398014 -0.004033222370398014 -0.004033222370398014
-0.00400526786497073 -0.00400526786497073 -0.00400526786497073
-0.003977313359543447 -0.003977313359543447 -0.003977313359543447
-0.003949358854116164 -0.003949358854116164 -0.003949358854116164
-0.003921404348688881 -0.003921404348688881 -0.003921404348688881
-0.0038934498432615975 -0.0038934498432615975 -0.0038934498432615975
-0.0038654953378343144 -0.0038654953378343144 -0.0038654953378343144
-0.0038375408324070313 -0.0038375408324070313 -0.0038375408324070313
-0.0038095863269797478 -0.0038095863269797478 -0.0038095863269797478
-0.003781631821552464 -0.003781631821552464 -0.003781631821552464
-0.0037536773161251807 -0.0037536773161251807 -0.0037536773161251807
-0.0037257228106978976 -0.0037257228106978976 -0.0037257228106978976
-0.0036977683052706145 -0.0036977683052706145 -0.0036977683052706145
-0.003669813799843331 -0.003669813799843331 -0.003669813799843331
-0.003641859294416048 -0.003641859294416048 -0.003641859294416048
-0.0036139047889887648 -0.0036139047889887648 -0.0036139047889887648
-0.003585950283561481 -0.003585950283561481 -0.003585950283561481
-0.0035579957781341977 -0.0035579957781341977 -0.0035579957781341977
-0.003530041272706914 -0.003530041272706914 -0.003530041272706914
-0.003502086767279631 -0.003502086767279631 -0.003502086767279631
-0.003474132261852348 -0.003474132261852348 -0.003474132261852348
-0.003446177756425065 -0.003446177756425065 -0.003446177756425065
-0.0034182232509977813 -0.0034182232509977813 -0.0034182232509977813
-0.0033902687455704982 -0.0033902687455704982 -0.0033902687455704982
-0.003362314240143215 -0.003362314240143215 -0.003362314240143215
-0.003334359734715932 -0.003334359734715932 -0.003334359734715932
-0.003306405229288649 -0.003306405229288649 -0.003306405229288649
-0.0032784507238613654 -0.0032784507238613654 -0.0032784507238613654
-0.0032504962184340823 -0.0032504962184340823 -0.0032504962184340823
-0.0032225417130067975 -0.0032225417130067975 -0.0032225417130067975
-0.0031945872075795144 -0.0031945872075795144 -0.0031945872075795144
-0.0031666327021522313 -0.0031666327021522313 -0.0031666327021522313
-0.003138678196724948 -0.003138678196724948 -0.003138678196724948
-0.0031107236912976646 -0.0031107236912976646 -0.0031107236912976646
-0.0030827691858703815 -0.0030827691858703815 -0.0030827691858703815
-0.0030548146804430984 -0.0030548146804430984 -0.0030548146804430984
-0.0030268601750158153 -0.0030268601750158153 -0.0030268601750158153
-0.002998905669588532 -0.002998905669588532 -0.002998905669588532
-0.0029709511641612487 -0.0029709511641612487 -0.0029709511641612487
-0.0029429966587339656 -0.0029429966587339656 -0.0029429966587339656
-0.0029150421533066825 -0.0029150421533066825 -0.0029150421533066825
-0.002887087647879399 -0.002887087647879399 -0.002887087647879399
-0.002859133142452116 -0.002859133142452116 -0.002859133142452116
-0.002831178637024833 -0.002831178637024833 -0.002831178637024833
-0.002803224131597548 -0.002803224131597548 -0.002803224131597548
-0.002775269626170265 -0.002775269626170265 -0.002775269626170265
-0.0027473151207429818 -0.0027473151207429818 -0.0027473151207429818
-0.0027193606153156982 -0.0027193606153156982 -0.0027193606153156982
-0.002691406109888415 -0.002691406109888415 -0.002691406109888415
-0.002663451604461132 -0.002663451604461132 -0.002663451604461132
-0.002635497099033849 -0.002635497099033849 -0.002635497099033849
-0.002607542593606566 -0.002607542593606566 -0.002607542593606566
-0.0025795880881792823 -0.0025795880881792823 -0.0025795880881792823
-0.002551633582751999 -0.002551633582751999 -0.002551633582751999
-0.002523679077324716 -0.002523679077324716 -0.002523679077324716
-0.002495724571897433 -0.002495724571897433 -0.002495724571897433
-0.0024677700664701495 -0.0024677700664701495 -0.0024677700664701495
-0.0024398155610428664 -0.0024398155610428664 -0.0024398155610428664
-0.0024118610556155833 -0.0024118610556155833 -0.0024118610556155833
-0.0023839065501883 -0.0023839065501883 -0.0023839065501883
-0.002355952044761017 -0.002355952044761017 -0.002355952044761017
-0.0023279975393337322 -0.0023279975393337322 -0.0023279975393337322
-0.0023000430339064487 -0.0023000430339064487 -0.0023000430339064487
-0.0022720885284791656 -0.0022720885284791656 -0.0022720885284791656
-0.0022441340230518825 -0.0022441340230518825 -0.0022441340230518825
-0.0022161795176245994 -0.0022161795176245994 -0.0022161795176245994
-0.002188225012197316 -0.002188225012197316 -0.002188225012197316
-0.0021602705067700328 -0.0021602705067700328 -0.0021602705067700328
-0.0021323160013427497 -0.0021323160013427497 -0.0021323160013427497
-0.0021043614959154666 -0.0021043614959154666 -0.0021043614959154666
-0.0020764069904881835 -0.0020764069904881835 -0.0020764069904881835
-0.0020484524850609 -0.0020484524850609 -0.0020484524850609
-0.002020497979633617 -0.002020497979633617 -0.002020497979633617
-0.0019925434742063338 -0.0019925434742063338 -0.0019925434742063338
-0.0019645889687790507 -0.0019645889687790507 -0.0019645889687790507
-0.0019366344633517673 -0.0019366344633517673 -0.0019366344633517673
-0.0019086799579244825 -0.0019086799579244825 -0.0019086799579244825
-0.0018807254524971994 -0.0018807254524971994 -0.0018807254524971994
-0.001852770947069916 -0.001852770947069916 -0.001852770947069916
-0.001824816441642633 -0.001824816441642633 -0.001824816441642633
-0.0017968619362153497 -0.0017968619362153497 -0.0017968619362153497
-0.0017689074307880666 -0.0017689074307880666 -0.0017689074307880666
-0.0017409529253607833 -0.0017409529253607833 -0.0017409529253607833
-0.0017129984199335002 -0.0017129984199335002 -0.0017129984199335002
-0.001685043914506217 -0.001685043914506217 -0.001685043914506217
-0.0016570894090789337 -0.0016570894090789337 -0.0016570894090789337
-0.0016291349036516507 -0.0016291349036516507 -0.0016291349036516507
-0.0016011803982243673 -0.0016011803982243673 -0.0016011803982243673
-0.0015732258927970842 -0.0015732258927970842 -0.0015732258927970842
-0.001545271387369801 -0.001545271387369801 -0.001545271387369801
-0.0015173168819425178 -0.0015173168819425178 -0.0015173168819425178
-0.0014893623765152345 -0.0014893623765152345 -0.0014893623765152345
-0.0014614078710879514 -0.0014614078710879514 -0.0014614078710879514
-0.0014334533656606666 -0.0014334533656606666 -0.0014334533656606666
-0.0014054988602333835 -0.0014054988602333835 -0.0014054988602333835
-0.0013775443548061002 -0.0013775443548061002 -0.0013775443548061002
-0.001349589849378817 -0.001349589849378817 -0.001349589849378817
-0.0013216353439515337 -0.0013216353439515337 -0.0013216353439515337
-0.0012936808385242506 -0.0012936808385242506 -0.0012936808385242506
-0.0012657263330969673 -0.0012657263330969673 -0.0012657263330969673
-0.0012377718276696842 -0.0012377718276696842 -0.0012377718276696842
-0.0012098173222424011 -0.0012098173222424011 -0.0012098173222424011
-0.0011818628168151178 -0.0011818628168151178 -0.0011818628168151178
-0.0011539083113878347 -0.0011539083113878347 -0.0011539083113878347
-0.0011259538059605514 -0.0011259538059605514 -0.0011259538059605514
-0.0010979993005332683 -0.0010979993005332683 -0.0010979993005332683
-0.001070044795105985 -0.001070044795105985 -0.001070044795105985
-0.0010420902896787019 -0.0010420902896787019 -0.0010420902896787019
-0.001014135784251417 -0.001014135784251417 -0.001014135784251417
-0.000986181278824134 -0.000986181278824134 -0.000986181278824134
-0.0009582267733968506 -0.0009582267733968506 -0.0009582267733968506
-0.0009302722679695674 -0.0009302722679695674 -0.0009302722679695674
-0.0009023177625422842 -0.0009023177625422842 -0.0009023177625422842
-0.0008743632571150011 -0.0008743632571150011 -0.0008743632571150011
-0.0008464087516877179 -0.0008464087516877179 -0.0008464087516877179
-0.0008184542462604347 -0.0008184542462604347 -0.0008184542462604347
-0.0007904997408331515 -0.0007904997408331515 -0.0007904997408331515
-0.0007625452354058683 -0.0007625452354058683 -0.0007625452354058683
-0.0007345907299785851 -0.0007345907299785851 -0.0007345907299785851
-0.0007066362245513019 -0.0007066362245513019 -0.0007066362245513019
-0.0006786817191240187 -0.0006786817191240187 -0.0006786817191240187
-0.0006507272136967355 -0.0006507272136967355 -0.0006507272136967355
-0.0006227727082694523 -0.0006227727082694523 -0.0006227727082694523
